!!!!SEGMENT: Mou3010-Ve_le_cy_ve_le_la.krn
!!!id: Mou3010
!!!AGN: Secular work
!!!voices: 3
!!!COM: Jean Mouton
!!!OTL: Ve le cy, ve le la
**kern	**kern	**kern
*part3	*part2	*part1
*staff3	*staff2	*staff1
*I"Tenor	*I"Altus	*I"Superius
*I'T	*I'A	*I'S
*clefGv2	*clefGv2	*clefG2
*k[]	*k[]	*k[]
*M2/1	*M2/1	*M2/1
*met(C|)	*met(C|)	*met(C|)
=1	=1	=1
1A	0r	1a
2B	.	2g
2c	.	2e
=2	=2	=2
2d	0r	2f
2B	.	2d
4c	.	2c
4B	.	.
4A	.	2d
4G	.	.
=3	=3	=3
2A	1r	1f
2A	.	.
1c	1A	1e
=4	=4	=4
1B	2B	2r
.	2c	2g
1r	2d	2.f
.	2B	.
.	.	8eL
.	.	8dJ
=5	=5	=5
2r	2c	2e
2d	2A	2.f
2c	4A	.
.	4B	4e
4B	4c	[2a
4A	4d	.
=6	=6	=6
1B	1e	2a]
.	.	2g#i
[1A	1e	[1a
=7	=7	=7
1A]	1r	1a]
1r	2r	1r
.	2e	.
=8	=8	=8
0r	2d	0r
.	2B	.
.	2c	.
.	2A	.
=9	=9	=9
0r	4G	0r
.	4A	.
.	4B	.
.	4c	.
.	2d	.
.	[2c	.
=10	=10	=10
2r	4c]	2r
.	4A	.
2F	2.d	2a
2G	.	2g
.	8c#iL	.
.	8BJ	.
2G	2c#i	2e
=11	=11	=11
2A	1d	2f
2B	.	2d
4c	2r	2c
4B	.	.
4A	[2d	[2f
4G	.	.
=12	=12	=12
2A	4d]	4f]
.	4c	4e
1G	2.B	2.g
.	4A	4f
2A	[2A	[2e
=13	=13	=13
2F	2A]	4e]
.	.	4d
4E	2G	1d
4D	.	.
2E	1A	.
2E	.	2c#i
=14	=14	=14
1D	2.F	2.d
.	4G	8cL
.	.	8BJ
1r	4A	4c
.	4B-i	4d
.	[2A	[2e
=15	=15	=15
1A	2A]	4e]
.	.	4d
.	4G	2.d
.	4F	.
1G	1E	.
.	.	4c#i
.	.	4c#i
.	.	8BL
.	.	8c#iJ
=16	=16	=16
1F	1D	1d
1E	1r	1r
=17	=17	=17
1G	0r	0r
1A	.	.
=18	=18	=18
0A	0r	0r
=19	=19	=19
2r	0r	0r
2A	.	.
2G	.	.
2F	.	.
=20	=20	=20
2E	0r	0r
1A	.	.
2G	.	.
=21	=21	=21
1A	1r	1a
2r	1d	2g
2D	.	2f
=22	=22	=22
1E	2c	2e
.	2B	2g
1F	2A	1a
.	2c	.
=23	=23	=23
1F	1d	1a
1r	1d	2r
.	.	2a
=24	=24	=24
1r	2r	2g
.	2d	2f
1A	2c	2.e
.	2c	.
.	.	4f
=25	=25	=25
2G	4d	2g
.	4c	.
2F	4B	2.a
.	4A	.
2E	2B	.
.	.	8gL
.	.	8fJ
2E	2B	2g
=26	=26	=26
2F	2A	4c
.	.	4d
2c	2e	4e
.	.	4f
2B	2e	2g
2A	2d	[2a
=27	=27	=27
1B	1e	2a]
.	.	4g#i
.	.	4f#i
1B	1e	1g#i
=28	=28	=28
1A	0c	0a
1r	.	.
=29	=29	=29
1d	0r	0r
2.c	.	.
4B	.	.
=30	=30	=30
2A	0r	0r
2c	.	.
2.c	.	.
8BL	.	.
8AJ	.	.
=31	=31	=31
1B	1r	0r
1A	1d	.
=32	=32	=32
2r	2.c	1g
2B	.	.
.	4B	.
4c	2A	2f
4d	.	.
4e	2c	2e
4c	.	.
=33	=33	=33
4f	4d	2d
4e	4c	.
4d	4B	2f
4c	4A	.
4B	1B	4g
4A	.	4f
[2d	.	4e
.	.	4d
=34	=34	=34
2d]	0A	1e
2c#i	.	.
1d	.	1d
=35	=35	=35
1G	2r	0r
.	2B	.
2F	4c	.
.	4d	.
2E	4e	.
.	4c	.
=36	=36	=36
2D	4f	0r
.	4e	.
2F	4d	.
.	4c	.
4G	4B	.
4F	4A	.
4E	[2d	.
4D	.	.
=37	=37	=37
1E	4d]	0r
.	4c#i	.
.	4c#i	.
.	4B	.
1D	1d	.
=38	=38	=38
1r	1G	1g
1G	1r	2g
.	.	2g
=39	=39	=39
2G	1r	2g
2G	.	2g
2G	1c	[1e
2G	.	.
=40	=40	=40
0E	2c	1e]
.	2c	.
.	2c	1cc
.	2c	.
=41	=41	=41
1c	0A	2cc
.	.	2cc
2c	.	2cc
2c	.	2cc
=42	=42	=42
2c	1f	[0a
2c	.	.
[1A	2f	.
.	2f	.
=43	=43	=43
0A]	2f	0a]
.	2f	.
.	1d	.
=44	=44	=44
2.F	2.d	2.a
4G	4d	4g
2A	2d	2f
2G	2c	2e
=45	=45	=45
2F	2B	2f
2G	2c	2e
2.F	2.A	2.f
4G	4A	4e
=46	=46	=46
2A	2f	2d
2A	2e	2c
2A	2d	2f
2A	2c	2e
=47	=47	=47
0r	1r	1a
.	1e	2g
.	.	2e
=48	=48	=48
1r	2d	2f
.	2B	2d
1e	2c	2c
.	2c	2cc
=49	=49	=49
2d	2G	2b
2B	2g	2.dd
2c	2g	.
.	.	4cc
2A	2c	[2cc
=50	=50	=50
1G	2d	2cc]
.	2d	2b
2r	1c	1cc
2A	.	.
=51	=51	=51
2B	0r	2r
2G	.	2c
2A	.	1f
2B	.	.
=52	=52	=52
2c	2r	2e
1A	2d	2.f
.	4c	.
.	4B	4e
[2c	4c	[2a
.	4d	.
=53	=53	=53
2c]	1e	2a]
2B	.	2g
1r	2A	2a
.	2d	2a
=54	=54	=54
2A	2c	1a
1c	2A	.
.	2r	2g
2B	2d	2d
=55	=55	=55
2A	2.c	1a
1c	.	.
.	4d	.
.	1e	1g
2B	.	.
=56	=56	=56
0r	1r	1a
.	1e	2g
.	.	2e
=57	=57	=57
0r	2d	2f
.	2B	2d
.	2c	4c
.	.	4d
.	2A	4e
.	.	4f
=58	=58	=58
2r	4G	2g
.	4A	.
1d	4B	4f
.	4c	4e
.	4d	4f
.	4B	4e
2e	4c	[2g
.	4d	.
=59	=59	=59
2c	2e	2g]
4B	2.f	2a
4A	.	.
2B	.	2f
.	4e	.
2B	[2d	4e
.	.	4d
=60	=60	=60
1A	4d]	2e
.	8c#iL	.
.	8BJ	.
.	2c#i	2e
2r	1d	1d
4B	.	.
4c	.	.
=61	=61	=61
4d	0r	0r
4B	.	.
4c	.	.
4B	.	.
2A	.	.
[2d	.	.
=62	=62	=62
2d]	1r	1r
2c	.	.
2d	2r	2r
4A	4d	4a
4A	4d	4a
=63	=63	=63
2B	2e	2g
4c	4e	4g
4c	4e	4g
2c	2A	2f
4A	4d	4a
4A	4d	4a
=64	=64	=64
2B	2e	2g
4B	4e	4g
4B	4e	4g
[1A	2e	2a
.	2e	2a
=65	=65	=65
1A]	2d	1f
.	1d	.
1r	.	2r
.	2e	[2g
=66	=66	=66
0r	2.c	2g]
.	.	2a
.	8BL	.
.	8AJ	.
.	2B	2f
.	2B	4e
.	.	4d
=67	=67	=67
0r	1A	2e
.	.	2e
.	2r	4d
.	.	4e
.	[2d	4f
.	.	4g
=68	=68	=68
2r	2d]	2a
1G	4c	4g
.	4B	4f
.	4c	2e
.	4B	.
2A	[2e	[2a
=69	=69	=69
2F	2e]	2a]
4E	1d	2g
4D	.	.
2E	.	2a
2E	2c	2cc
=70	=70	=70
2D	2d	4b
.	.	4a
1G	2.B	4g
.	.	4f
.	.	2g
.	4A	.
2A	[2A	[2e
=71	=71	=71
2F	2A]	4e]
.	.	4d
4E	2G	1d
4D	.	.
2E	[1Al	.
2E	.	2c#i
=72	=72	=72
0Dl	0A]	0dl
==	==	==
*-	*-	*-
!!!system-decoration: s1,s2,s3
!!!RDF**kern: i = editorial accidental
!!!RDF**kern: l = terminal long
!!!ENC: Max Blistain
!!!END: 2026/03/26
!!!EED: Benjamin Ory
!!!EEV: 2026/06/21
!!!YEC: Copyright 2026 Benjamin Ory, All Rights Reserved
!!!ONB: Translated from MusicXML on 2026/06/21
!!muse2ps: C^@{COM}^i2I150v90,90,120c120z18l2770t130
